surge-skins/surge-xt/modern-dark-xt.surge-skin/SVG/bmp00187.svg

<svg width="13" height="52" viewBox="0 0 13 52" fill="none" xmlns="http://www.w3.org/2000/svg">
<path fill-rule="evenodd" clip-rule="evenodd" d="M9.24635 47.3919L8.39218 48.2461L6.89706 46.751L7.75124 45.8968L9.24635 47.3919Z" fill="url(#paint0_linear_2_58)"/>
<path fill-rule="evenodd" clip-rule="evenodd" d="M11.4498 48.7414L9.67405 46.9657C9.43816 46.7298 9.05577 46.7298 8.81988 46.9657L7.9657 47.8199C7.7298 48.0558 7.7298 48.4382 7.9657 48.6741L9.74141 50.4498C10.2132 50.9219 10.9786 50.9219 11.4504 50.4498C11.9215 49.9783 11.9212 49.2132 11.4498 48.7414Z" fill="url(#paint1_linear_2_58)"/>
<path fill-rule="evenodd" clip-rule="evenodd" d="M1 44.0776C1 41.8256 2.82559 40 5.07757 40C7.32955 40 9.15514 41.8256 9.15514 44.0776C9.15514 46.3296 7.32955 48.1552 5.07757 48.1552C2.82559 48.1552 1 46.3296 1 44.0776Z" fill="url(#paint2_linear_2_58)"/>
<path fill-rule="evenodd" clip-rule="evenodd" d="M2.20818 44.0776C2.20818 42.4929 3.49285 41.2082 5.07758 41.2082C6.66231 41.2082 7.94698 42.4929 7.94698 44.0776C7.94698 45.6623 6.66231 46.947 5.07758 46.947C3.49285 46.947 2.20818 45.6623 2.20818 44.0776Z" fill="black"/>
<path fill-rule="evenodd" clip-rule="evenodd" d="M9.24278 34.3918L8.38861 35.246L6.89349 33.7509L7.74767 32.8967L9.24278 34.3918Z" fill="#A7A7A7"/>
<path fill-rule="evenodd" clip-rule="evenodd" d="M11.4462 35.7414L9.67048 33.9657C9.43459 33.7298 9.0522 33.7298 8.81631 33.9657L7.96213 34.8198C7.72623 35.0557 7.72623 35.4381 7.96213 35.674L9.73784 37.4497C10.2096 37.9218 10.975 37.9218 11.4468 37.4497C11.9179 36.9782 11.9176 36.2132 11.4462 35.7414Z" fill="#737373"/>
<path fill-rule="evenodd" clip-rule="evenodd" d="M0.996429 31.0775C0.996429 28.8255 2.82202 26.9999 5.074 26.9999C7.32598 26.9999 9.15157 28.8255 9.15157 31.0775C9.15157 33.3295 7.32598 35.1551 5.074 35.1551C2.82202 35.1551 0.996429 33.3295 0.996429 31.0775Z" fill="#979797"/>
<path fill-rule="evenodd" clip-rule="evenodd" d="M2.20461 31.0775C2.20461 29.4928 3.48928 28.2081 5.07401 28.2081C6.65874 28.2081 7.94341 29.4928 7.94341 31.0775C7.94341 32.6623 6.65874 33.9469 5.07401 33.9469C3.48928 33.9469 2.20461 32.6623 2.20461 31.0775Z" fill="black"/>
<path fill-rule="evenodd" clip-rule="evenodd" d="M9.24635 21.3919L8.39218 22.2461L6.89706 20.751L7.75124 19.8968L9.24635 21.3919Z" fill="url(#paint3_linear_2_58)"/>
<path fill-rule="evenodd" clip-rule="evenodd" d="M11.4498 22.7414L9.67405 20.9657C9.43816 20.7298 9.05577 20.7298 8.81988 20.9657L7.9657 21.8199C7.7298 22.0558 7.7298 22.4382 7.9657 22.6741L9.74141 24.4498C10.2132 24.9219 10.9786 24.9219 11.4504 24.4498C11.9215 23.9783 11.9212 23.2132 11.4498 22.7414Z" fill="url(#paint4_linear_2_58)"/>
<path fill-rule="evenodd" clip-rule="evenodd" d="M1 18.0776C1 15.8256 2.82559 14 5.07757 14C7.32955 14 9.15514 15.8256 9.15514 18.0776C9.15514 20.3296 7.32955 22.1552 5.07757 22.1552C2.82559 22.1552 1 20.3296 1 18.0776Z" fill="url(#paint5_linear_2_58)"/>
<path fill-rule="evenodd" clip-rule="evenodd" d="M2.20818 18.0776C2.20818 16.4929 3.49285 15.2082 5.07758 15.2082C6.66231 15.2082 7.94698 16.4929 7.94698 18.0776C7.94698 19.6623 6.66231 20.947 5.07758 20.947C3.49285 20.947 2.20818 19.6623 2.20818 18.0776Z" fill="black"/>
<path fill-rule="evenodd" clip-rule="evenodd" d="M9.23729 8.39184L8.38312 9.24602L6.888 7.7509L7.74218 6.89673L9.23729 8.39184Z" fill="#A7A7A7"/>
<path fill-rule="evenodd" clip-rule="evenodd" d="M11.4407 9.74136L9.66498 7.96565C9.42909 7.72975 9.0467 7.72975 8.81081 7.96565L7.95663 8.81982C7.72073 9.05572 7.72073 9.43811 7.95663 9.674L9.73234 11.4497C10.2041 11.9218 10.9695 11.9218 11.4413 11.4497C11.9124 10.9782 11.9121 10.2131 11.4407 9.74136Z" fill="#737373"/>
<path fill-rule="evenodd" clip-rule="evenodd" d="M5.06851 0.999939C2.81653 0.999939 0.990936 2.82554 0.990936 5.07752C0.990936 7.32951 2.81653 9.1551 5.06851 9.1551C7.32049 9.1551 9.14608 7.32951 9.14608 5.07752C9.14608 2.82554 7.32049 0.999939 5.06851 0.999939ZM5.06852 2.20812C3.48379 2.20812 2.19912 3.4928 2.19912 5.07753C2.19912 6.66226 3.48379 7.94693 5.06852 7.94693C6.65325 7.94693 7.93792 6.66226 7.93792 5.07753C7.93792 3.4928 6.65325 2.20812 5.06852 2.20812Z" fill="#979797"/>
<path fill-rule="evenodd" clip-rule="evenodd" d="M2.20818 5.07759C2.20818 3.49286 3.49285 2.20818 5.07758 2.20818C6.66231 2.20818 7.94698 3.49286 7.94698 5.07759C7.94698 6.66232 6.66231 7.94699 5.07758 7.94699C3.49285 7.94699 2.20818 6.66232 2.20818 5.07759Z" fill="black"/>
<defs>
<linearGradient id="paint0_linear_2_58" x1="8.07171" y1="45.8968" x2="8.07171" y2="48.2463" gradientUnits="userSpaceOnUse">
<stop stop-color="#FFEE58"/>
<stop offset="1" stop-color="#FFEE58" stop-opacity="0.35"/>
</linearGradient>
<linearGradient id="paint1_linear_2_58" x1="9.79615" y1="46.7888" x2="9.79615" y2="50.8043" gradientUnits="userSpaceOnUse">
<stop stop-color="#FFEE58"/>
<stop offset="1" stop-color="#FFEE58" stop-opacity="0.35"/>
</linearGradient>
<linearGradient id="paint2_linear_2_58" x1="5.07757" y1="40" x2="5.07757" y2="48.156" gradientUnits="userSpaceOnUse">
<stop stop-color="#FFEE58"/>
<stop offset="1" stop-color="#FFEE58" stop-opacity="0.35"/>
</linearGradient>
<linearGradient id="paint3_linear_2_58" x1="8.07171" y1="19.8968" x2="8.07171" y2="22.2463" gradientUnits="userSpaceOnUse">
<stop stop-color="#FFEE58"/>
<stop offset="1" stop-color="#FFEE58" stop-opacity="0.35"/>
</linearGradient>
<linearGradient id="paint4_linear_2_58" x1="9.79615" y1="20.7888" x2="9.79615" y2="24.8043" gradientUnits="userSpaceOnUse">
<stop stop-color="#FFEE58"/>
<stop offset="1" stop-color="#FFEE58" stop-opacity="0.35"/>
</linearGradient>
<linearGradient id="paint5_linear_2_58" x1="5.07757" y1="14" x2="5.07757" y2="22.156" gradientUnits="userSpaceOnUse">
<stop stop-color="#FFEE58"/>
<stop offset="1" stop-color="#FFEE58" stop-opacity="0.35"/>
</linearGradient>
</defs>
</svg>

<svg width="13" height="52" fill="none" xmlns="http://www.w3.org/2000/svg"><path fill-rule="evenodd" clip-rule="evenodd" d="m9.246 47.392-.854.854-1.495-1.495.854-.854 1.495 1.495Z" fill="url(#a)"/><path fill-rule="evenodd" clip-rule="evenodd" d="m11.45 48.741-1.776-1.775a.604.604 0 0 0-.854 0l-.854.854a.604.604 0 0 0 0 .854L9.74 50.45a1.208 1.208 0 1 0 1.709-1.709Z" fill="url(#b)"/><path fill-rule="evenodd" clip-rule="evenodd" d="M1 44.078a4.078 4.078 0 1 1 8.155 0 4.078 4.078 0 0 1-8.155 0Z" fill="url(#c)"/><path fill-rule="evenodd" clip-rule="evenodd" d="M2.208 44.078a2.87 2.87 0 1 1 5.739 0 2.87 2.87 0 0 1-5.739 0Z" fill="#000"/><path fill-rule="evenodd" clip-rule="evenodd" d="m9.243 34.392-.854.854-1.496-1.495.855-.854 1.495 1.495Z" fill="#A7A7A7"/><path fill-rule="evenodd" clip-rule="evenodd" d="M11.446 35.741 9.67 33.966a.604.604 0 0 0-.854 0l-.854.854a.604.604 0 0 0 0 .854l1.776 1.776a1.208 1.208 0 1 0 1.708-1.709Z" fill="#737373"/><path fill-rule="evenodd" clip-rule="evenodd" d="M.996 31.078a4.078 4.078 0 1 1 8.156 0 4.078 4.078 0 0 1-8.156 0Z" fill="#979797"/><path fill-rule="evenodd" clip-rule="evenodd" d="M2.205 31.078a2.87 2.87 0 1 1 5.738 0 2.87 2.87 0 0 1-5.738 0Z" fill="#000"/><path fill-rule="evenodd" clip-rule="evenodd" d="m9.246 21.392-.854.854-1.495-1.495.854-.854 1.495 1.495Z" fill="url(#d)"/><path fill-rule="evenodd" clip-rule="evenodd" d="m11.45 22.741-1.776-1.775a.604.604 0 0 0-.854 0l-.854.854a.604.604 0 0 0 0 .854L9.74 24.45a1.208 1.208 0 1 0 1.709-1.709Z" fill="url(#e)"/><path fill-rule="evenodd" clip-rule="evenodd" d="M1 18.078a4.078 4.078 0 1 1 8.155 0 4.078 4.078 0 0 1-8.155 0Z" fill="url(#f)"/><path fill-rule="evenodd" clip-rule="evenodd" d="M2.208 18.078a2.87 2.87 0 1 1 5.739 0 2.87 2.87 0 0 1-5.739 0Z" fill="#000"/><path fill-rule="evenodd" clip-rule="evenodd" d="m9.237 8.392-.854.854-1.495-1.495.854-.854 1.495 1.495Z" fill="#A7A7A7"/><path fill-rule="evenodd" clip-rule="evenodd" d="M11.44 9.741 9.666 7.966a.604.604 0 0 0-.854 0l-.854.854a.604.604 0 0 0 0 .854l1.775 1.776a1.208 1.208 0 1 0 1.709-1.709Z" fill="#737373"/><path fill-rule="evenodd" clip-rule="evenodd" d="M5.069 1a4.078 4.078 0 1 0 0 8.155 4.078 4.078 0 0 0 0-8.155Zm0 1.208a2.87 2.87 0 1 0 0 5.739 2.87 2.87 0 0 0 0-5.739Z" fill="#979797"/><path fill-rule="evenodd" clip-rule="evenodd" d="M2.208 5.078a2.87 2.87 0 1 1 5.739 0 2.87 2.87 0 0 1-5.739 0Z" fill="#000"/><defs><linearGradient id="a" x1="8.072" y1="45.897" x2="8.072" y2="48.246" gradientUnits="userSpaceOnUse"><stop stop-color="#FFEE58"/><stop offset="1" stop-color="#FFEE58" stop-opacity=".35"/></linearGradient><linearGradient id="b" x1="9.796" y1="46.789" x2="9.796" y2="50.804" gradientUnits="userSpaceOnUse"><stop stop-color="#FFEE58"/><stop offset="1" stop-color="#FFEE58" stop-opacity=".35"/></linearGradient><linearGradient id="c" x1="5.078" y1="40" x2="5.078" y2="48.156" gradientUnits="userSpaceOnUse"><stop stop-color="#FFEE58"/><stop offset="1" stop-color="#FFEE58" stop-opacity=".35"/></linearGradient><linearGradient id="d" x1="8.072" y1="19.897" x2="8.072" y2="22.246" gradientUnits="userSpaceOnUse"><stop stop-color="#FFEE58"/><stop offset="1" stop-color="#FFEE58" stop-opacity=".35"/></linearGradient><linearGradient id="e" x1="9.796" y1="20.789" x2="9.796" y2="24.804" gradientUnits="userSpaceOnUse"><stop stop-color="#FFEE58"/><stop offset="1" stop-color="#FFEE58" stop-opacity=".35"/></linearGradient><linearGradient id="f" x1="5.078" y1="14" x2="5.078" y2="22.156" gradientUnits="userSpaceOnUse"><stop stop-color="#FFEE58"/><stop offset="1" stop-color="#FFEE58" stop-opacity=".35"/></linearGradient></defs></svg>
